!!!COM:	la Rue, Pierre de
!!!CDT:	~1452///-1518/11/20
!!!OPR:	Missa Nunca fu&eacute; pena mayor
!!!ONM:	2
!!!OTL:	Gloria
!!!AGN:	Mass; Gloria
!!!SCT:	Rue1020b
!!!SCA:	Rue1020b
!!!voices:	4
!!!voices-OPR:	4
**kern	**kern	**kern	**kern
*staff4	*staff3	*staff2	*staff1
*Ivox	*Ivox	*Ivox	*Ivox
*I"Bassus	*I"Tenor	*I"Contra	*I"Discantus
*I'B	*I'T	*I'C	*I'D
*>[A,B]	*>[A,B]	*>[A,B]	*>[A,B]
*>A	*>A	*>A	*>A
*clefF4	*clefGv2	*clefGv2	*clefG2
*k[]	*k[]	*k[]	*k[]
*M3/1	*M3/1	*M3/1	*M3/1
*met(O)	*met(O)	*met(O)	*met(O)
!!section: Et in terra pax
!!!OMD: Et in terra pax
=1-	=1-	=1-	=1-
0.r	0.r	1E	0.r
.	.	0G	.
=2	=2	=2	=2
1r	0.r	1A	1e
1r	.	1B	0g
1E	.	2B\	.
.	.	[2c\	.
=3	=3	=3	=3
1AA	0.r	2c\]	1a
.	.	2c\	.
0E	.	1.B	1b
.	.	.	2b\
.	.	4A/	[2cc\
.	.	4G/	.
=4	=4	=4	=4
1F	0.r	1A	2cc\]
.	.	.	2cc\
2G\	.	1B	1.b
2E\	.	.	.
2.G\	.	2r	.
.	.	2B\	4a/
4A\	.	.	4g/
=5	=5	=5	=5
1F	0.r	2.c\	1a
.	.	4B\	.
1E	.	1G	2r
.	.	.	2b\
1AA	.	2A/	2.cc\
.	.	2c\	.
.	.	.	4b\
=6	=6	=6	=6
1E	[0.e	2B\	2g/
.	.	1c	2g/
1r	.	.	2a/
.	.	4B\	2cc\
.	.	4A/	.
2r	.	2G/	2b\
[2C/	.	2A/	[2cc\
=7	=7	=7	=7
4C/]	0.e_	2c\	4cc\]
4D\	.	.	4b\
2E\	.	2B\	2g/
2AA/	.	2.c\	2a/
2A\	.	.	2cc\
.	.	4B\	.
2E\	.	2G/	2b\
[2A\	.	2A/	[2cc\
=8	=8	=8	=8
4A\]	0.e]	2.c\	4cc\]
4G\	.	.	4b\
1E	.	.	4g/
.	.	4B\	4a/
.	.	2G/	2b\
2AA/	.	2A/	1a
1E	.	1B	.
.	.	.	2g#i/
=9	=9	=9	=9
2r	[0.c	1.A	1a
2AA/	.	.	.
2.C/	.	.	2r
.	.	4G/	2e/
4C/	.	4F/	.
[1C	.	1E	2.g/
.	.	.	4g/
=10	=10	=10	=10
1C]	0c]	2r	1.g
.	.	1e	.
1C	.	.	.
.	.	4d\	4f/
.	.	4c\	4e/
1G	2.d\	2B\	1d
.	.	2d\	.
.	4c\	.	.
=11	=11	=11	=11
2C/	[0.A	2e\	1c
2.F\	.	2c\	.
.	.	2d\	2r
4E\	.	.	.
4D\	.	2f\	2d/
8C/L	.	.	.
8BB/J	.	.	.
1AA	.	1e	2e/
.	.	.	2c/
=12	=12	=12	=12
2r	0.A]	0.r	2d/
2D\	.	.	2f/
2D\	.	.	1e
2C/	.	.	.
2D\	.	.	2r
2F\	.	.	2a/
=13	=13	=13	=13
1E	[0.e	1r	2b\
.	.	.	2g/
1AA	.	2r	2a/
.	.	2A/	2cc\
1E	.	2B\	1b
.	.	2G/	.
=14	=14	=14	=14
2r	0.e]	2A/	2r
2AA/	.	2c\	2a/
2E\	.	1B	2b\
2E\	.	.	2g/
1A	.	2r	2a/
.	.	2A/	[2cc\
=15	=15	=15	=15
1E	0e	2B\	2cc\]
.	.	2G/	1b
1r	.	2A/	.
.	.	2c\	1a
1r	1d	1B	.
.	.	.	2g#i/
=16	=16	=16	=16
0AA	2.c\	1A	0a
.	4d\	.	.
.	1e	2.c\	.
.	.	4d\	.
1AA	2.A/	2e\	1r
.	.	2f\	.
.	4B\	.	.
=17	=17	=17	=17
2.AA/	2c\	2e\	0.r
.	2d\	2A/	.
4BB/	.	.	.
2C/	2e\	2r	.
2D\	2f\	2A/	.
2E\	2.c\	2G/	.
2F\	.	2A/	.
.	4d\	.	.
=18	=18	=18	=18
2.C/	2e\	2E/	1r
.	2f\	2A/	.
4D\	.	.	.
2E\	2g\	2G/	1r
2F\	2a\	2c\	.
2G\	[1e	2B\	2.e/
2A\	.	[2e\	.
.	.	.	4f/
=19	=19	=19	=19
2.E\	1e]	4e\]	2g/
.	.	4d\	.
.	.	2c\	2a/
4F\	.	.	.
2G\	2r	2B\	2b\
2A\	2c\	2e\	2cc\
2B\	2d\	2r	2b\
2c\	2e\	2c\	2g/
=20	=20	=20	=20
2r	[0.f	2A/	1a
1F	.	1c	.
.	.	.	0a
2F\	.	2c\	.
1F	.	[1A	.
=21	=21	=21	=21
0.D	0f]	1A]	1dd
.	.	1B	2dd\
.	.	.	2dd\
.	1f	[1A	1dd
=22	=22	=22	=22
0AA	1.e	0A]	2.cc\
.	.	.	4dd\
.	.	.	2ee\
.	2c\	.	1ff
1BB	1d	1r	.
.	.	.	4ee\
.	.	.	4dd\
=23	=23	=23	=23
0AA	1e	2r	0cc
.	.	1A	.
.	2e\	.	.
.	1f	2A/	.
1r	.	1B	1dd
.	4e\	.	.
.	4d\	.	.
=24	=24	=24	=24
1r	0c	0A	2ee\
.	.	.	2.a/
1r	.	.	.
.	.	.	4g/
.	.	.	2e/
1D	1d	1A	2.f/
.	.	.	4e/
=25	=25	=25	=25
0AA	0e	2r	0c
.	.	1A	.
.	.	2A/	.
1E	1e	2B\	2r
.	.	2c\	[2g/
=26	=26	=26	=26
1E	2r	2B\	2g/]
.	2e\	2.c\	2g/
2AA/	1e	.	2a/
.	.	4B\	.
1A	.	4A/	1cc
.	.	4G/	.
.	1f	2F/	.
2F\	.	2c\	2a/
=27	=27	=27	=27
2G\	1e	2B\	2b\
2A\	.	2A/	2.cc\
1E	2r	2c\	.
.	.	.	4b\
.	2e\	2B\	2g/
[1A	1e	2c\	2r
.	.	2A/	[2cc\
=28	=28	=28	=28
2A\]	1f	2r	2cc\]
2F\	.	2c\	2a/
2G\	0e	2B\	2b\
2A\	.	2A/	2.cc\
1E	.	2c\	.
.	.	.	4b\
.	.	2B\	2g/
=29	=29	=29	=29
2r	1r	2A/	2r
1A	.	2e\	1cc
.	1r	2.f\	.
2F\	.	.	2a/
.	.	4e\	.
2G\	2r	2d\	2b\
2A\	2e\	2c\	2cc\
=30	=30	=30	=30
1D	2.f\	2B\	2.dd\
.	.	2A/	.
.	4e\	.	4cc\
1r	2d\	2r	4b\
.	.	.	4a/
.	2c\	2e\	1a
2r	1B	2d\	.
2E\	.	2e\	2g#i/
=31	=31	=31	=31
2.F\	0A	4c\	0a
.	.	4B\	.
.	.	4A/	.
4E\	.	4G/	.
2D\	.	2F/	.
2C/	.	2E/	.
1BB	1G	1D	2r
.	.	.	2b\
=32	=32	=32	=32
1AA	1A	2E/	2.cc\
.	.	2e\	.
.	.	.	4b\
1r	1r	2f\	2a/
.	.	1e	2g/
1r	1r	.	1f
.	.	2d\	.
=33	=33	=33	=33
2r	1c	1e	1e
2AA/	.	.	.
2C/	1c	2r	2r
2C/	.	2E/	2e/
2.C/	2c\	2G/	2e/
.	[2c\	2G/	2e/
4D\	.	.	.
=34	=34	=34	=34
4E\	2c\]	1G	2e/
4F\	.	.	.
1G	2B\	.	2d/
.	1G	2B\	2e/
2E\	.	2c\	1g
1D	1A	1d	.
.	.	.	2f#i/
=35	=35	=35	=35
1.E	1G	2r	0.g
.	.	2B\	.
.	1r	2B\	.
2C/	.	1c	.
1C	1G	.	.
.	.	4B\	.
.	.	4A/	.
=36	=36	=36	=36
2.C/	1.c	2G/	0.r
.	.	2A/	.
4D\	.	.	.
2E\	.	2G/	.
2F\	2c\	1c	.
1D	1d	.	.
.	.	2B\	.
=37	=37	=37	=37
0.C	[0.e	0c	1r
.	.	.	1r
.	.	1r	1g
=38	=38	=38	=38
1r	0e]	1.g	1.cc
1r	.	.	.
.	.	2g\	2cc\
1G	1d	1g	1dd
=39	=39	=39	=39
2C/	1c	1g	2ee\
1c	.	.	1ee
.	1.g	2e\	.
2B\	.	2.g\	2dd\
1c	.	.	1cc
.	.	4f\	.
.	2g\	2e\	.
=40	=40	=40	=40
1G	0.g	2d\	2b\
.	.	2B\	1ee
1r	.	2c\	.
.	.	2d\	2dd\
1E	.	1e	2cc\
.	.	.	2b\
=41	=41	=41	=41
1F	[0.f	1c	1a
1D	.	1d	2r
.	.	.	2a/
2r	.	[1A	2.a/
[2F\	.	.	.
.	.	.	4b\
=42	=42	=42	=42
2F\]	0.f]	1A]	2cc\
2D\	.	.	1dd
0D	.	0d	.
.	.	.	2cc\
.	.	.	2b\
.	.	.	2a/
=43	=43	=43	=43
1E	0.e	1B	1g
0C	.	0c	1.g
.	.	.	2g/
=44	=44	=44	=44
1D	0.d	1A	0f
0BB-	.	0B-	.
.	.	.	1f
=45	=45	=45	=45
1C	1.c	2G/	1e
.	.	1g	.
0G	.	.	0d
.	4B\	2g\	.
.	4A/	.	.
.	1B	1g	.
=46	=46	=46	=46
2C/	0.c	1e	2c/
2.E\	.	.	2.g/
.	.	1r	.
4C/	.	.	4e/
2F\	.	.	2a/
2E\	.	1r	2g/
[2C/	.	.	[2e/
=47	=47	=47	=47
4C/]	0.A	0.r	4e/]
4AA/	.	.	4c/
2D\	.	.	2f/
2C/	.	.	2e/
2.AA/	.	.	2.c/
4BB/	.	.	4d/
4C/	.	.	4e/
4D\	.	.	4f/
=48	=48	=48	=48
0.E	2r	1e	0g
.	2.B\	.	.
.	.	2e\	.
.	4G/	.	.
.	2c\	2.e\	.
.	2B\	.	1g
.	.	4d\	.
.	[2G/	2B\	.
=49	=49	=49	=49
0.C	4G/]	2r	0e
.	4E/	.	.
.	2A/	2.c\	.
.	2G/	.	.
.	.	4G/	.
.	2.E/	2.c\	.
.	.	.	1g
.	4F/	4d\	.
.	4G/	2e\	.
.	4A/	.	.
=50	=50	=50	=50
0.D	2B\	1.d	2.f/
.	1A	.	.
.	.	.	4e/
.	.	.	2f/
.	2G/	4c\	1e
.	.	4B\	.
.	1F	1A	.
.	.	.	2d/
=51	=51	=51	=51
2r	[0.El	2r	1e
2AA/	.	2c\	.
2AA/	.	2c\	1r
2GG/	.	1B	.
1AA	.	.	2r
.	.	[2A/	2cc\
=52	=52	=52	=52
1E	0.E_	2A/]	2cc\
.	.	2G#i/	1b
1AA	.	1A	.
.	.	.	1a
1r	.	1B	.
.	.	.	2g#i/
=53	=53	=53	=53
1AA	0.E_	1A	2a/
.	.	.	1cc
2AA/	.	2r	.
1C	.	1e	4b\
.	.	.	4a/
.	.	.	2.g/
4BB/	.	4d\	.
4AA/	.	4c\	4a/
=54	=54	=54	=54
2GG/	0.E_	2B\	2b\
1AA	.	2A/	1cc
.	.	1B	.
2GG/	.	.	1b
1AA	.	1c	.
.	.	.	2a/
=55	=55	=55	=55
0.El	0.E]	0B	2.b\
.	.	.	4g/
.	.	.	0gl
.	.	1el	.
!!LO:LB:i:g=z
=56||	=56||	=56||	=56||
*>B	*>B	*>B	*>B
*clefF4	*clefGv2	*clefGv2	*clefG2
*k[]	*k[]	*k[]	*k[]
*M2/1	*M2/1	*M2/1	*M2/1
*met(C|)	*met(C|)	*met(C|)	*met(C|)
!!section: Qui tollis
!!!OMD: Qui tollis
[0E	0r	0B	0r
=57	=57	=57	=57
0E_	0r	1c	0r
.	.	[1B	.
=58	=58	=58	=58
0E_	0r	1B]	0b
.	.	[1G	.
=59	=59	=59	=59
0E]	0r	2G/]	1cc
.	.	2A/	.
.	.	1B	[1b
=60	=60	=60	=60
0E	0r	1G	1b]
.	.	[1c	1g
=61	=61	=61	=61
1F	0r	2c\]	1a
.	.	4B\	.
.	.	4A/	.
[1E	.	1G	1b
=62	=62	=62	=62
1E]	0r	2r	1.cc
.	.	2.c\	.
1C	.	.	.
.	.	4d\	.
.	.	2e\	2b\
=63	=63	=63	=63
1D	0r	1f	1a
1E	.	2e\	1g
.	.	[2c\	.
=64	=64	=64	=64
1.F	0r	4c\]	2r
.	.	4B\	.
.	.	2.A/	1a
.	.	4G/	.
2E\	.	[2c\	4g/
.	.	.	4a/
=65	=65	=65	=65
1D	0r	2c\]	4b\
.	.	.	4a/
.	.	2B\	4g/
.	.	.	4f/
1C	.	1c	1e
=66	=66	=66	=66
1r	[0c	1.e	1.g
[1C	.	.	.
.	.	2e\	2g/
=67	=67	=67	=67
2C/]	1c]	1e	1g
2D\	.	.	.
1E	1G	1e	1g
=68	=68	=68	=68
1F	1A	1c	0f
1D	1B	1d	.
=69	=69	=69	=69
0C	1.c	1G	1.e
.	.	[1c	.
.	2d\	.	2f/
=70	=70	=70	=70
1r	[0e	2c\]	0g
.	.	4B\	.
.	.	4A/	.
1C	.	1G	.
=71	=71	=71	=71
1E	0e]	0r	2r
.	.	.	2g/
2.E\	.	.	2.g/
4F\	.	.	4a/
=72	=72	=72	=72
2G\	0r	1r	2b\
2A\	.	.	2cc\
2G\	.	2r	2b\
[2A\	.	2A/	[2cc\
=73	=73	=73	=73
2A\]	0r	2.c\	2cc\]
4G\	.	.	4b\
4F\	.	4d\	4a/
1E	.	1e	1g
=74	=74	=74	=74
0r	[0e	2r	2r
.	.	2E/	2g/
.	.	2.E/	2.g/
.	.	4F/	4a/
=75	=75	=75	=75
1r	1e]	2G/	2b\
.	.	2A/	2cc\
2r	1e	2G/	2b\
2AA/	.	[2A/	[2cc\
=76	=76	=76	=76
2.C/	0e	4A/]	2cc\]
.	.	4B\	.
.	.	1c	4b\
4D\	.	.	4a/
[1E	.	.	1g
.	.	4B\	.
.	.	4A/	.
=77	=77	=77	=77
2E\]	1e	1.G	1.b
2E\	.	.	.
[1E	1e	.	.
.	.	2G/	2b\
=78	=78	=78	=78
1E]	1e	0G	1b
1E	1e	.	1b
=79	=79	=79	=79
1AA	0e	1A	1cc
1C	.	2G/	1cc
.	.	2A/	.
=80	=80	=80	=80
1BB	0d	2B\	1.dd
.	.	2c\	.
1GG	.	2d\	.
.	.	2e\	2cc\
=81	=81	=81	=81
0D	0d	2f\	1b
.	.	1g	.
.	.	.	1a
.	.	2f#i\	.
=82	=82	=82	=82
1GG	[0d	1g	2r
.	.	.	2g/
2.G\	.	1r	2d/
.	.	.	[2g/
4A\	.	.	.
=83	=83	=83	=83
2B\	0d]	0r	2g/]
1c	.	.	4f/
.	.	.	4e/
.	.	.	1d
2B\	.	.	.
=84	=84	=84	=84
1c	[0g	1e	2r
.	.	.	2.c/
2r	.	2.c\	.
.	.	.	4d/
[2C/	.	.	2e/
.	.	4d\	.
=85	=85	=85	=85
4C/]	0g]	2e\	2c/
4D\	.	.	.
2E\	.	1c	2.g/
2C/	.	.	.
.	.	.	4f/
[2G\	.	4B\	[2e/
.	.	4A/	.
=86	=86	=86	=86
2G\]	0g	0G	2e/]
2F\	.	.	1d
1E	.	.	.
.	.	.	2c#i/
=87	=87	=87	=87
0D	0f	0A	1d
.	.	.	2r
.	.	.	2d/
=88	=88	=88	=88
2r	1f	1B	2d/
2D\	.	.	2.d/
2D\	[1f	[1A	.
.	.	.	4e/
[2D\	.	.	2f/
=89	=89	=89	=89
4D\]	2f\]	1A]	2d/
4E\	.	.	.
2F\	2f\	.	2.a/
2D\	1f	2A/	.
.	.	.	4g/
[2A\	.	[2c\	[2f/
=90	=90	=90	=90
2A\]	0f	2c\]	4f/]
.	.	.	4e/
2G\	.	2B\	4d/
.	.	.	4c/
1F	.	1A	1d
=91	=91	=91	=91
[0E	[0g	1B	0e
.	.	2B\	.
.	.	[2c\	.
=92	=92	=92	=92
0E]	0g]	2c\]	1r
.	.	4B\	.
.	.	4A/	.
.	.	1B	1b
=93	=93	=93	=93
0AA	0r	1A	1.cc
.	.	2r	.
.	.	2A/	4b\
.	.	.	4a/
=94	=94	=94	=94
1r	0r	2c\	2g/
.	.	2A/	2a/
2r	.	2.c\	1e
2AA/	.	.	.
.	.	4d\	.
=95	=95	=95	=95
2C/	0r	1.e	1r
2AA/	.	.	.
2.C/	.	.	2r
.	.	4d\	2e/
4D\	.	4c\	.
=96	=96	=96	=96
1.E	0r	2B\	2g/
.	.	2c\	2e/
.	.	1G	2.g/
4D\	.	.	.
4C/	.	.	4a/
=97	=97	=97	=97
1BB	0r	1r	1b
1AA	.	2r	[1cc
.	.	2A/	.
=98	=98	=98	=98
1r	0r	2c\	2cc\]
.	.	2A/	4b\
.	.	.	4a/
2r	.	2.c\	2g/
2AA/	.	.	2a/
.	.	4d\	.
=99	=99	=99	=99
2C/	0r	1.e	1e
2AA/	.	.	.
2.C/	.	.	2r
.	.	4d\	2e/
4D\	.	4c\	.
=100	=100	=100	=100
1.E	0r	2B\	2g/
.	.	2.c\	2e/
.	.	.	2.g/
.	.	4B\	.
4D\	.	[2A/	.
4C/	.	.	4a/
=101	=101	=101	=101
1BB	0r	2A/]	1b
.	.	2G#i/	.
1AA	.	1A	[1cc
=102	=102	=102	=102
2r	0r	0e	2cc\]
2AA/	.	.	4b\
.	.	.	4a/
2C/	.	.	2g/
2AA/	.	.	2a/
=103	=103	=103	=103
2.C/	0r	1c	2e/
.	.	.	1a
4D\	.	.	.
1E	.	1B	.
.	.	.	2g#i/
=104	=104	=104	=104
1AA	0c	0A	0a
[1A	.	.	.
=105	=105	=105	=105
1A]	1c	1r	1r
1A	[1c	1e	1a
=106	=106	=106	=106
1A	1c]	1e	1a
1A	1c	1e	1a
=107	=107	=107	=107
1A	1c	1e	1a
1A	1c	1f	1a
=108	=108	=108	=108
0A	0c	1e	1cc
.	.	1f	1cc
=109	=109	=109	=109
1G	[0d	1g	1.b
2r	.	2G/	.
2G\	.	[2d\	4a/
.	.	.	4g/
=110	=110	=110	=110
2F\	0d_	4d\]	2a/
.	.	4c\	.
2G\	.	2B\	1g
1D	.	1A	.
.	.	.	2f#i/
=111	=111	=111	=111
1r	0d_	0G	2g/
.	.	.	2.dd\
2r	.	.	.
.	.	.	4cc\
[2G\	.	.	[2b\
=112	=112	=112	=112
2G\]	0d]	1r	2b\]
2A\	.	.	1a
1B	.	1d	.
.	.	.	2g#i/
=113	=113	=113	=113
0A	0c	1e	1a
.	.	2e\	1a
.	.	[2f\	.
=114	=114	=114	=114
1A	1c	2f\]	1.a
.	.	2e\	.
2A\	1c	1e	.
[2A\	.	.	4g/
.	.	.	4f/
=115	=115	=115	=115
2A\]	1c	1r	2e/
4G\	.	.	2f/
4F\	.	.	.
2E\	1c	1e	[1g
2F\	.	.	.
=116	=116	=116	=116
0G	1B	1d	2g/]
.	.	.	4f/
.	.	.	4e/
.	1B	[1g	1d
=117	=117	=117	=117
1G	2B\	1g]	0r
.	1B	.	.
2G\	.	1g	.
[2G\	2B\	.	.
=118	=118	=118	=118
2G\]	2B\	[0g	1dd
2G\	2B\	.	.
1G	[1B	.	2dd\
.	.	.	[2dd\
=119	=119	=119	=119
0G	1B]	0g]	2dd\]
.	.	.	2dd\
.	1B	.	2dd\
.	.	.	2dd\
=120	=120	=120	=120
0C	1.c	2g\	1.ee
.	.	1g	.
.	2d\	2g\	4dd\
.	.	.	4cc\
=121	=121	=121	=121
2r	1e	2g\	1cc
1C	.	2G/	.
.	1f	1A	1r
2D\	.	.	.
=122	=122	=122	=122
1E	1.e	1G	2r
.	.	.	1cc
1F	.	1A	.
.	[2d\	.	2dd\
=123	=123	=123	=123
2E\	2d\]	2G/	1ee
2C/	1c	2A/	.
1D	.	1F	1ff
.	2B\	.	.
=124	=124	=124	=124
1C	2.c\	1G	1ee
.	4d\	.	.
1r	2e\	1r	2cc\
.	2f\	.	[2dd\
=125	=125	=125	=125
0r	2d\	0r	2dd\]
.	1f	.	4cc\
.	.	.	4b\
.	.	.	2a/
.	[2e\	.	[2g/
=126	=126	=126	=126
1r	2e\]	1r	2g/]
.	4d\	.	1cc
.	4c\	.	.
1G	1d	1g	.
.	.	.	2b\
=127	=127	=127	=127
1A	[0c	1e	0cc
[1A	.	2e\	.
.	.	[2f\	.
=128	=128	=128	=128
2A\]	0c]	2f\]	1r
4G\	.	2a\	.
4F\	.	.	.
2E\	.	2g\	1cc
[2F\	.	2f\	.
=129	=129	=129	=129
2F\]	0r	1g	1cc
2E\	.	.	.
2F\	.	2f\	1cc
2A\	.	2c\	.
=130	=130	=130	=130
2.G\	0r	2d\	1b
.	.	1f	.
4F\	.	.	.
1G	.	.	1b
.	.	2e\	.
=131	=131	=131	=131
1F	0c	1f	1a
1F	.	1f	1a
=132	=132	=132	=132
1F	1c	2.f\	1a
.	.	4d\	.
1A	1c	2e\	1cc
.	.	2f\	.
=133	=133	=133	=133
1G	1d	0g	1b
1G	1B	.	1dd
=134	=134	=134	=134
1A	0c	1e	1cc
1F	.	[1f	1a
=135	=135	=135	=135
1F	0d	2f\]	1a
.	.	2e\	.
[1G	.	[1d	[1b
=136	=136	=136	=136
2G\]	0G	1d]	2b\]
2F\	.	.	2a/
1E	.	1c	[1g
=137	=137	=137	=137
0D	0A	0d	1g]
.	.	.	1f#i
=138	=138	=138	=138
0GGl	0Gl	0dl	0gl
==	==	==	==
*-	*-	*-	*-
!!!RDF**kern: l=long note in original notation
!!!RDF**kern: i=editorial accidental
!!!RDF**kern: V=start of tuplet marker
!!!RDF**kern: Z=end of tuplet marker
!!!ENC:	Jesse Rodin; Chris Gage 10-25-2012
!!!END:	2012/11/09/
!!!EED:	Jesse Rodin
!!!EEV:	2012/12/15/
!!!ONB:	Translated from MusicXML and edited on 2012/12/15/ by Craig Sapp
!!muse2ps: T^@{OPR}^u^@{ONM}{. }@{OTL}^C^@{COM}^i2I150v85,85,85,150Q16c120
